!! 00000] TT[WS
!!!OTL: Kan guayuanr
!!!ARE: Asia, China, Shanxi Jinnan
!! Ethnic Group: Han
!! WI, 60 (2)
!!!SCT: J0068
!!!YEM: Copyright 1995, estate of Helmut Schaffrath.
**kern
*ICvox
*Ivox
*M2/4
*k[f#]
*G:
{8r
8dd
8b
8dd
=1
8cc
8b
[4a
=2
8a]
8dd
8b
8dd
=3
8b
8a
[4g
=4
8g]}
{8b
8a#
8b
=5
8g#
8b
4a
=6
8a
8e
8a
8f#
=7
8e
4.dd}
=8
{8e
16d
16e
[4g
=9
8g]
8b
8a
8b
=10
4g
4d
=11
16e
16g
16e
16d
4B}
=12
{8b
16b
16a
8b
16b
16a
=13
8g#
8b
4a
=14
8g
8f#
8e
8g
=15
8d
8e
4g}
=16
{8r
8d
8B
8d
=17
8e
16d
16e
4a
=18
8a
8e
8a
8f#
=19
8e
4.d}
==
!!!AGN: Xiaodiao. Laodong, Zhongzhi
!!!ONB: ESAC (Essen Associative Code) Database: CHINA
!!!AMT: simple duple
!!!AIN: vox
!!!EED: Helmut Schaffrath
!!!EEV: 1.0
*-
!!!ONB: Tied note syntax fixed by Craig Sapp, 2004/05/03/
